!! 00000] TT[WS
!!!OTL: Tianshang hongyuen
!!!ARE: Asia, China, Shanxi Cuoquan
!! Ethnic Group: Han
!! WII, 130
!!!SCT: J0600
!!!YEM: Copyright 1995, estate of Helmut Schaffrath.
**kern
*ICvox
*Ivox
*M2/4
*k[f#]
*G:
{4b
8dd
8ee
=1
8dd
8b
8dd
8ee
=2
8ee
8dd
8cc
8b
=3
2a}
=4
{4b
8dd
8ee
=5
8dd
8b
4dd
=6
8ee
8dd
8cc
8b
=7
2a}
=8
{4a
4dd
=9
8b
8dd
8b
8dd
=10
8b
8dd
8b
8a
=11
4g
8f#
8e}
=12
{8e
8dd
8b
8a
=13
8g
8a
8b
8dd
=14
8a
8g
8f#
8e
=15
4d
4r}
=16
{4a
4a
=17
8dd
8dd
8b
8a
=18
2g}
=19
{8e
8dd
8b
8a
=20
8g
8a
8b
8dd
=21
8a
8g
8f#
8e
=22
4d
4r}
==
!!!AGN: Xiaodiao. Qingge, Aisu
!!!ONB: ESAC (Essen Associative Code) Database: CHINA
!!!AMT: simple duple
!!!AIN: vox
!!!EED: Helmut Schaffrath
!!!EEV: 1.0
*-
